src/assets/img/globalping/polygons_3.svg

<svg width="363" height="416" viewBox="0 0 363 416" fill="none" xmlns="http://www.w3.org/2000/svg">
<path fill-rule="evenodd" clip-rule="evenodd" d="M210.44 38.8893L147.938 2.8039C146.082 1.73211 143.795 1.73211 141.938 2.80391L79.4366 38.8893C77.5802 39.9611 76.4366 41.9418 76.4366 44.0854V116.256C76.4366 118.4 77.5802 120.38 79.4367 121.452L141.938 157.538C143.795 158.609 146.082 158.609 147.938 157.538L210.44 121.452C212.296 120.38 213.44 118.4 213.44 116.256V44.0854C213.44 41.9418 212.296 39.961 210.44 38.8893ZM148.938 1.07185C146.463 -0.35721 143.414 -0.357206 140.938 1.07186L78.4366 37.1572C75.9614 38.5863 74.4366 41.2273 74.4366 44.0854V116.256C74.4366 119.114 75.9614 121.755 78.4367 123.184L140.938 159.27C143.414 160.699 146.463 160.699 148.938 159.27L211.44 123.184C213.915 121.755 215.44 119.114 215.44 116.256V44.0854C215.44 41.2273 213.915 38.5863 211.44 37.1572L148.938 1.07185ZM357.817 38.8893L295.315 2.8039C293.459 1.73211 291.171 1.73211 289.315 2.80391L226.813 38.8893C224.957 39.9611 223.813 41.9418 223.813 44.0854V116.256C223.813 118.4 224.957 120.38 226.813 121.452L289.315 157.538C291.171 158.609 293.459 158.609 295.315 157.538L357.817 121.452C359.673 120.38 360.817 118.4 360.817 116.256V44.0854C360.817 41.9418 359.673 39.961 357.817 38.8893ZM296.315 1.07185C293.84 -0.35721 290.79 -0.357206 288.315 1.07186L225.813 37.1572C223.338 38.5863 221.813 41.2273 221.813 44.0854V116.256C221.813 119.114 223.338 121.755 225.813 123.184L288.315 159.27C290.79 160.699 293.84 160.699 296.315 159.27L358.817 123.184C361.292 121.755 362.817 119.114 362.817 116.256V44.0854C362.817 41.2273 361.292 38.5863 358.817 37.1572L296.315 1.07185ZM147.938 257.533L210.44 293.618C212.296 294.69 213.44 296.671 213.44 298.814V370.985C213.44 373.128 212.296 375.109 210.44 376.181L147.938 412.266C146.082 413.338 143.795 413.338 141.938 412.266L79.4367 376.181C77.5802 375.109 76.4366 373.128 76.4366 370.985V298.814C76.4366 296.671 77.5802 294.69 79.4366 293.618L141.938 257.533C143.795 256.461 146.082 256.461 147.938 257.533ZM140.938 255.801C143.414 254.371 146.463 254.371 148.938 255.801L211.44 291.886C213.915 293.315 215.44 295.956 215.44 298.814V370.985C215.44 373.843 213.915 376.484 211.44 377.913L148.938 413.998C146.463 415.427 143.414 415.427 140.938 413.998L78.4367 377.913C75.9614 376.484 74.4366 373.843 74.4366 370.985V298.814C74.4366 295.956 75.9614 293.315 78.4366 291.886L140.938 255.801ZM283.97 166.254L221.468 130.168C219.612 129.097 217.325 129.097 215.468 130.168L152.967 166.254C151.11 167.326 149.967 169.306 149.967 171.45V243.621C149.967 245.764 151.11 247.745 152.967 248.817L215.468 284.902C217.325 285.974 219.612 285.974 221.468 284.902L283.97 248.817C285.827 247.745 286.97 245.764 286.97 243.621V171.45C286.97 169.306 285.827 167.325 283.97 166.254ZM222.468 128.436C219.993 127.007 216.944 127.007 214.468 128.436L151.967 164.522C149.492 165.951 147.967 168.592 147.967 171.45V243.621C147.967 246.479 149.492 249.12 151.967 250.549L214.468 286.634C216.944 288.063 219.993 288.063 222.468 286.634L284.97 250.549C287.445 249.12 288.97 246.479 288.97 243.621V171.45C288.97 168.592 287.445 165.951 284.97 164.522L222.468 128.436ZM74.4083 130.168L136.91 166.254C138.766 167.325 139.91 169.306 139.91 171.45V243.621C139.91 245.764 138.766 247.745 136.91 248.817L74.4083 284.902C72.5519 285.974 70.2647 285.974 68.4083 284.902L5.90662 248.817C4.05021 247.745 2.90662 245.764 2.90662 243.621V171.45C2.90662 169.306 4.05021 167.326 5.90662 166.254L68.4083 130.168C70.2647 129.097 72.5519 129.097 74.4083 130.168ZM67.4083 128.436C69.8835 127.007 72.9331 127.007 75.4083 128.436L137.91 164.522C140.385 165.951 141.91 168.592 141.91 171.45V243.621C141.91 246.479 140.385 249.12 137.91 250.549L75.4083 286.634C72.9331 288.063 69.8835 288.063 67.4083 286.634L4.90662 250.549C2.43141 249.12 0.906616 246.479 0.906616 243.621V171.45C0.906616 168.592 2.43141 165.951 4.90662 164.522L67.4083 128.436Z" fill="url(#paint0_radial_5768_10554)"/>
<path fill-rule="evenodd" clip-rule="evenodd" d="M210.44 38.8893L147.938 2.8039C146.082 1.73211 143.795 1.73211 141.938 2.80391L79.4366 38.8893C77.5802 39.9611 76.4366 41.9418 76.4366 44.0854V116.256C76.4366 118.4 77.5802 120.38 79.4367 121.452L141.938 157.538C143.795 158.609 146.082 158.609 147.938 157.538L210.44 121.452C212.296 120.38 213.44 118.4 213.44 116.256V44.0854C213.44 41.9418 212.296 39.961 210.44 38.8893ZM148.938 1.07185C146.463 -0.35721 143.414 -0.357206 140.938 1.07186L78.4366 37.1572C75.9614 38.5863 74.4366 41.2273 74.4366 44.0854V116.256C74.4366 119.114 75.9614 121.755 78.4367 123.184L140.938 159.27C143.414 160.699 146.463 160.699 148.938 159.27L211.44 123.184C213.915 121.755 215.44 119.114 215.44 116.256V44.0854C215.44 41.2273 213.915 38.5863 211.44 37.1572L148.938 1.07185ZM357.817 38.8893L295.315 2.8039C293.459 1.73211 291.171 1.73211 289.315 2.80391L226.813 38.8893C224.957 39.9611 223.813 41.9418 223.813 44.0854V116.256C223.813 118.4 224.957 120.38 226.813 121.452L289.315 157.538C291.171 158.609 293.459 158.609 295.315 157.538L357.817 121.452C359.673 120.38 360.817 118.4 360.817 116.256V44.0854C360.817 41.9418 359.673 39.961 357.817 38.8893ZM296.315 1.07185C293.84 -0.35721 290.79 -0.357206 288.315 1.07186L225.813 37.1572C223.338 38.5863 221.813 41.2273 221.813 44.0854V116.256C221.813 119.114 223.338 121.755 225.813 123.184L288.315 159.27C290.79 160.699 293.84 160.699 296.315 159.27L358.817 123.184C361.292 121.755 362.817 119.114 362.817 116.256V44.0854C362.817 41.2273 361.292 38.5863 358.817 37.1572L296.315 1.07185ZM147.938 257.533L210.44 293.618C212.296 294.69 213.44 296.671 213.44 298.814V370.985C213.44 373.128 212.296 375.109 210.44 376.181L147.938 412.266C146.082 413.338 143.795 413.338 141.938 412.266L79.4367 376.181C77.5802 375.109 76.4366 373.128 76.4366 370.985V298.814C76.4366 296.671 77.5802 294.69 79.4366 293.618L141.938 257.533C143.795 256.461 146.082 256.461 147.938 257.533ZM140.938 255.801C143.414 254.371 146.463 254.371 148.938 255.801L211.44 291.886C213.915 293.315 215.44 295.956 215.44 298.814V370.985C215.44 373.843 213.915 376.484 211.44 377.913L148.938 413.998C146.463 415.427 143.414 415.427 140.938 413.998L78.4367 377.913C75.9614 376.484 74.4366 373.843 74.4366 370.985V298.814C74.4366 295.956 75.9614 293.315 78.4366 291.886L140.938 255.801ZM283.97 166.254L221.468 130.168C219.612 129.097 217.325 129.097 215.468 130.168L152.967 166.254C151.11 167.326 149.967 169.306 149.967 171.45V243.621C149.967 245.764 151.11 247.745 152.967 248.817L215.468 284.902C217.325 285.974 219.612 285.974 221.468 284.902L283.97 248.817C285.827 247.745 286.97 245.764 286.97 243.621V171.45C286.97 169.306 285.827 167.325 283.97 166.254ZM222.468 128.436C219.993 127.007 216.944 127.007 214.468 128.436L151.967 164.522C149.492 165.951 147.967 168.592 147.967 171.45V243.621C147.967 246.479 149.492 249.12 151.967 250.549L214.468 286.634C216.944 288.063 219.993 288.063 222.468 286.634L284.97 250.549C287.445 249.12 288.97 246.479 288.97 243.621V171.45C288.97 168.592 287.445 165.951 284.97 164.522L222.468 128.436ZM74.4083 130.168L136.91 166.254C138.766 167.325 139.91 169.306 139.91 171.45V243.621C139.91 245.764 138.766 247.745 136.91 248.817L74.4083 284.902C72.5519 285.974 70.2647 285.974 68.4083 284.902L5.90662 248.817C4.05021 247.745 2.90662 245.764 2.90662 243.621V171.45C2.90662 169.306 4.05021 167.326 5.90662 166.254L68.4083 130.168C70.2647 129.097 72.5519 129.097 74.4083 130.168ZM67.4083 128.436C69.8835 127.007 72.9331 127.007 75.4083 128.436L137.91 164.522C140.385 165.951 141.91 168.592 141.91 171.45V243.621C141.91 246.479 140.385 249.12 137.91 250.549L75.4083 286.634C72.9331 288.063 69.8835 288.063 67.4083 286.634L4.90662 250.549C2.43141 249.12 0.906616 246.479 0.906616 243.621V171.45C0.906616 168.592 2.43141 165.951 4.90662 164.522L67.4083 128.436Z" fill="url(#paint1_radial_5768_10554)"/>
<defs>
<radialGradient id="paint0_radial_5768_10554" cx="0" cy="0" r="1" gradientUnits="userSpaceOnUse" gradientTransform="translate(52.5 355.762) rotate(-55.4474) scale(368.501 387.263)">
<stop stop-color="#17D4A7" stop-opacity="0.5"/>
<stop offset="1" stop-color="#17D4A7" stop-opacity="0"/>
</radialGradient>
<radialGradient id="paint1_radial_5768_10554" cx="0" cy="0" r="1" gradientUnits="userSpaceOnUse" gradientTransform="translate(28 124.262) rotate(57.5104) scale(119.148 103.888)">
<stop stop-color="#174BFF"/>
<stop offset="1" stop-color="#174BFF" stop-opacity="0"/>
</radialGradient>
</defs>
</svg>

<svg xmlns="http://www.w3.org/2000/svg" width="363" height="416" fill="none">
  <path fill="url(#a)" fill-rule="evenodd" d="M210.44 38.89 147.938 2.803a6 6 0 0 0-6 0L79.437 38.889a6 6 0 0 0-3 5.196v72.171a6 6 0 0 0 3 5.196l62.501 36.086a6.004 6.004 0 0 0 6 0l62.502-36.086a6 6 0 0 0 3-5.196v-72.17a6 6 0 0 0-3-5.197ZM148.938 1.071a8 8 0 0 0-8 0L78.437 37.157a8 8 0 0 0-4 6.928v72.171a8 8 0 0 0 4 6.928l62.501 36.086a8 8 0 0 0 8 0l62.502-36.086a8 8 0 0 0 4-6.928v-72.17a8 8 0 0 0-4-6.929L148.938 1.072Zm208.879 37.817L295.315 2.804a6 6 0 0 0-6 0l-62.502 36.085a6 6 0 0 0-3 5.196v72.171a6 6 0 0 0 3 5.196l62.502 36.086a6.004 6.004 0 0 0 6 0l62.502-36.086a6 6 0 0 0 3-5.196v-72.17a6 6 0 0 0-3-5.197ZM296.315 1.072a8 8 0 0 0-8 0l-62.502 36.085a8 8 0 0 0-4 6.928v72.171a8 8 0 0 0 4 6.928l62.502 36.086a8 8 0 0 0 8 0l62.502-36.086a8 8 0 0 0 4-6.928v-72.17a8 8 0 0 0-4-6.929L296.315 1.072ZM147.938 257.533l62.502 36.085a6.002 6.002 0 0 1 3 5.196v72.171a6.002 6.002 0 0 1-3 5.196l-62.502 36.085a5.999 5.999 0 0 1-6 0l-62.501-36.085a6 6 0 0 1-3-5.196v-72.171a6 6 0 0 1 3-5.196l62.501-36.085a5.999 5.999 0 0 1 6 0Zm-7-1.732a7.995 7.995 0 0 1 8 0l62.502 36.085a8 8 0 0 1 4 6.928v72.171a8 8 0 0 1-4 6.928l-62.502 36.085a8 8 0 0 1-8 0l-62.501-36.085a8 8 0 0 1-4-6.928v-72.171a8 8 0 0 1 4-6.928l62.501-36.085Zm143.032-89.547-62.502-36.086a6.004 6.004 0 0 0-6 0l-62.501 36.086a5.998 5.998 0 0 0-3 5.196v72.171a6 6 0 0 0 3 5.196l62.501 36.085a5.999 5.999 0 0 0 6 0l62.502-36.085a6 6 0 0 0 3-5.196V171.45a5.997 5.997 0 0 0-3-5.196Zm-61.502-37.818a8 8 0 0 0-8 0l-62.501 36.086a8 8 0 0 0-4 6.928v72.171a8 8 0 0 0 4 6.928l62.501 36.085a8 8 0 0 0 8 0l62.502-36.085a8 8 0 0 0 4-6.928V171.45a8 8 0 0 0-4-6.928l-62.502-36.086Zm-148.06 1.732 62.502 36.086a6 6 0 0 1 3 5.196v72.171a6.002 6.002 0 0 1-3 5.196l-62.502 36.085a5.999 5.999 0 0 1-6 0L5.907 248.817a6 6 0 0 1-3-5.196V171.45a6 6 0 0 1 3-5.196l62.501-36.086a6.004 6.004 0 0 1 6 0Zm-7-1.732a8 8 0 0 1 8 0l62.502 36.086a8 8 0 0 1 4 6.928v72.171a8 8 0 0 1-4 6.928l-62.502 36.085a8 8 0 0 1-8 0L4.907 250.549a8 8 0 0 1-4-6.928V171.45a8 8 0 0 1 4-6.928l62.501-36.086Z" clip-rule="evenodd"/>
  <path fill="url(#b)" fill-rule="evenodd" d="M210.44 38.89 147.938 2.803a6 6 0 0 0-6 0L79.437 38.889a6 6 0 0 0-3 5.196v72.171a6 6 0 0 0 3 5.196l62.501 36.086a6.004 6.004 0 0 0 6 0l62.502-36.086a6 6 0 0 0 3-5.196v-72.17a6 6 0 0 0-3-5.197ZM148.938 1.071a8 8 0 0 0-8 0L78.437 37.157a8 8 0 0 0-4 6.928v72.171a8 8 0 0 0 4 6.928l62.501 36.086a8 8 0 0 0 8 0l62.502-36.086a8 8 0 0 0 4-6.928v-72.17a8 8 0 0 0-4-6.929L148.938 1.072Zm208.879 37.817L295.315 2.804a6 6 0 0 0-6 0l-62.502 36.085a6 6 0 0 0-3 5.196v72.171a6 6 0 0 0 3 5.196l62.502 36.086a6.004 6.004 0 0 0 6 0l62.502-36.086a6 6 0 0 0 3-5.196v-72.17a6 6 0 0 0-3-5.197ZM296.315 1.072a8 8 0 0 0-8 0l-62.502 36.085a8 8 0 0 0-4 6.928v72.171a8 8 0 0 0 4 6.928l62.502 36.086a8 8 0 0 0 8 0l62.502-36.086a8 8 0 0 0 4-6.928v-72.17a8 8 0 0 0-4-6.929L296.315 1.072ZM147.938 257.533l62.502 36.085a6.002 6.002 0 0 1 3 5.196v72.171a6.002 6.002 0 0 1-3 5.196l-62.502 36.085a5.999 5.999 0 0 1-6 0l-62.501-36.085a6 6 0 0 1-3-5.196v-72.171a6 6 0 0 1 3-5.196l62.501-36.085a5.999 5.999 0 0 1 6 0Zm-7-1.732a7.995 7.995 0 0 1 8 0l62.502 36.085a8 8 0 0 1 4 6.928v72.171a8 8 0 0 1-4 6.928l-62.502 36.085a8 8 0 0 1-8 0l-62.501-36.085a8 8 0 0 1-4-6.928v-72.171a8 8 0 0 1 4-6.928l62.501-36.085Zm143.032-89.547-62.502-36.086a6.004 6.004 0 0 0-6 0l-62.501 36.086a5.998 5.998 0 0 0-3 5.196v72.171a6 6 0 0 0 3 5.196l62.501 36.085a5.999 5.999 0 0 0 6 0l62.502-36.085a6 6 0 0 0 3-5.196V171.45a5.997 5.997 0 0 0-3-5.196Zm-61.502-37.818a8 8 0 0 0-8 0l-62.501 36.086a8 8 0 0 0-4 6.928v72.171a8 8 0 0 0 4 6.928l62.501 36.085a8 8 0 0 0 8 0l62.502-36.085a8 8 0 0 0 4-6.928V171.45a8 8 0 0 0-4-6.928l-62.502-36.086Zm-148.06 1.732 62.502 36.086a6 6 0 0 1 3 5.196v72.171a6.002 6.002 0 0 1-3 5.196l-62.502 36.085a5.999 5.999 0 0 1-6 0L5.907 248.817a6 6 0 0 1-3-5.196V171.45a6 6 0 0 1 3-5.196l62.501-36.086a6.004 6.004 0 0 1 6 0Zm-7-1.732a8 8 0 0 1 8 0l62.502 36.086a8 8 0 0 1 4 6.928v72.171a8 8 0 0 1-4 6.928l-62.502 36.085a8 8 0 0 1-8 0L4.907 250.549a8 8 0 0 1-4-6.928V171.45a8 8 0 0 1 4-6.928l62.501-36.086Z" clip-rule="evenodd"/>
  <defs>
    <radialGradient id="a" cx="0" cy="0" r="1" gradientTransform="rotate(-55.447 364.723 127.932) scale(368.501 387.263)" gradientUnits="userSpaceOnUse">
      <stop stop-color="#17D4A7" stop-opacity=".5"/>
      <stop offset="1" stop-color="#17D4A7" stop-opacity="0"/>
    </radialGradient>
    <radialGradient id="b" cx="0" cy="0" r="1" gradientTransform="matrix(64.00063 100.49958 -87.628 55.80369 28 124.26)" gradientUnits="userSpaceOnUse">
      <stop stop-color="#174BFF"/>
      <stop offset="1" stop-color="#174BFF" stop-opacity="0"/>
    </radialGradient>
  </defs>
</svg>
